main/svg/glow.svg

<svg xmlns="http://www.w3.org/2000/svg" xmlns:xlink="http://www.w3.org/1999/xlink" width="32" height="32"><defs><linearGradient id="b"><stop offset="0" style="stop-color:#000;stop-opacity:1"/><stop offset=".5" style="stop-color:#000;stop-opacity:1"/><stop offset="1" style="stop-color:#000;stop-opacity:0"/></linearGradient><linearGradient id="a"><stop offset="0" style="stop-color:#000;stop-opacity:1"/><stop offset="1" style="stop-color:#000;stop-opacity:0"/></linearGradient><linearGradient xlink:href="#a" id="c" x1="24" x2="28" y1="16" y2="16" gradientUnits="userSpaceOnUse"/><linearGradient xlink:href="#a" id="d" x1="24" x2="28" y1="16" y2="16" gradientTransform="translate(-32)" gradientUnits="userSpaceOnUse"/><linearGradient xlink:href="#a" id="e" x1="24" x2="28" y1="16" y2="16" gradientTransform="translate(-32 -32)" gradientUnits="userSpaceOnUse"/><linearGradient xlink:href="#a" id="f" x1="24" x2="28" y1="16" y2="16" gradientTransform="translate(0 -32)" gradientUnits="userSpaceOnUse"/><radialGradient xlink:href="#b" id="g" cx="12" cy="12" r="8" fx="12" fy="12" gradientUnits="userSpaceOnUse"/><radialGradient xlink:href="#b" id="h" cx="12" cy="12" r="8" fx="12" fy="12" gradientTransform="matrix(-1 0 0 1 32 0)" gradientUnits="userSpaceOnUse"/><radialGradient xlink:href="#b" id="i" cx="12" cy="12" r="8" fx="12" fy="12" gradientTransform="rotate(180 16 16)" gradientUnits="userSpaceOnUse"/><radialGradient xlink:href="#b" id="j" cx="12" cy="12" r="8" fx="12" fy="12" gradientTransform="matrix(1 0 0 -1 0 32)" gradientUnits="userSpaceOnUse"/></defs><path d="M24 12h4v8h-4z" style="fill:url(#c);stroke-width:.1;stop-color:#000;fill-opacity:1"/><path d="M-8 12h4v8h-4z" style="fill:url(#d);fill-opacity:1;stroke-width:.1;stop-color:#000" transform="scale(-1 1)"/><path d="M-8-20h4v8h-4z" style="fill:url(#e);fill-opacity:1;stroke-width:.1;stop-color:#000" transform="matrix(0 -1 -1 0 0 0)"/><path d="M24-20h4v8h-4z" style="fill:url(#f);fill-opacity:1;stroke-width:.1;stop-color:#000" transform="rotate(90)"/><path d="M12 4a8 8 0 0 0-8 8h8V4z" style="fill:url(#g);stroke-width:.1;stop-color:#000;fill-opacity:1"/><path d="M20 4a8 8 0 0 1 8 8h-8z" style="fill:url(#h);fill-opacity:1;stroke-width:.1;stop-color:#000"/><path d="M20 28a8 8 0 0 0 8-8h-8z" style="fill:url(#i);fill-opacity:1;stroke-width:.1;stop-color:#000"/><path d="M12 28a8 8 0 0 1-8-8h8z" style="fill:url(#j);fill-opacity:1;stroke-width:.1;stop-color:#000"/><path d="M12 8v4H8v8h4v4h8v-4h4v-8h-4V8h-8z" style="fill:#000;stroke-width:.1;stop-color:#000"/></svg>

<?xml version="1.0" encoding="UTF-8" standalone="no"?>
<svg
   width="32"
   height="32"
   version="1.1"
   id="svg7880"
   sodipodi:docname="glow.svg"
   inkscape:version="1.2.2 (b0a8486, 2022-12-01)"
   xmlns:inkscape="http://www.inkscape.org/namespaces/inkscape"
   xmlns:sodipodi="http://sodipodi.sourceforge.net/DTD/sodipodi-0.dtd"
   xmlns:xlink="http://www.w3.org/1999/xlink"
   xmlns="http://www.w3.org/2000/svg"
   xmlns:svg="http://www.w3.org/2000/svg">
  <defs
     id="defs7884">
    <linearGradient
       inkscape:collect="always"
       id="linearGradient9060">
      <stop
         style="stop-color:#000000;stop-opacity:1;"
         offset="0"
         id="stop9056" />
      <stop
         style="stop-color:#000000;stop-opacity:1;"
         offset="0.5"
         id="stop9064" />
      <stop
         style="stop-color:#000000;stop-opacity:0;"
         offset="1"
         id="stop9058" />
    </linearGradient>
    <linearGradient
       inkscape:collect="always"
       id="linearGradient8280">
      <stop
         style="stop-color:#000000;stop-opacity:1;"
         offset="0"
         id="stop8276" />
      <stop
         style="stop-color:#000000;stop-opacity:0;"
         offset="1"
         id="stop8278" />
    </linearGradient>
    <linearGradient
       inkscape:collect="always"
       xlink:href="#linearGradient8280"
       id="linearGradient8282"
       x1="24"
       y1="16"
       x2="28"
       y2="16"
       gradientUnits="userSpaceOnUse" />
    <linearGradient
       inkscape:collect="always"
       xlink:href="#linearGradient8280"
       id="linearGradient8286"
       gradientUnits="userSpaceOnUse"
       x1="24"
       y1="16"
       x2="28"
       y2="16"
       gradientTransform="translate(-32)" />
    <linearGradient
       inkscape:collect="always"
       xlink:href="#linearGradient8280"
       id="linearGradient8290"
       gradientUnits="userSpaceOnUse"
       gradientTransform="translate(-32,-32)"
       x1="24"
       y1="16"
       x2="28"
       y2="16" />
    <linearGradient
       inkscape:collect="always"
       xlink:href="#linearGradient8280"
       id="linearGradient8294"
       gradientUnits="userSpaceOnUse"
       gradientTransform="translate(0,-32)"
       x1="24"
       y1="16"
       x2="28"
       y2="16" />
    <radialGradient
       inkscape:collect="always"
       xlink:href="#linearGradient9060"
       id="radialGradient9062"
       cx="12"
       cy="12"
       fx="12"
       fy="12"
       r="8"
       gradientUnits="userSpaceOnUse" />
    <radialGradient
       inkscape:collect="always"
       xlink:href="#linearGradient9060"
       id="radialGradient9071"
       gradientUnits="userSpaceOnUse"
       cx="12"
       cy="12"
       fx="12"
       fy="12"
       r="8"
       gradientTransform="matrix(-1,0,0,1,32,0)" />
    <radialGradient
       inkscape:collect="always"
       xlink:href="#linearGradient9060"
       id="radialGradient9075"
       gradientUnits="userSpaceOnUse"
       gradientTransform="rotate(180,16,16)"
       cx="12"
       cy="12"
       fx="12"
       fy="12"
       r="8" />
    <radialGradient
       inkscape:collect="always"
       xlink:href="#linearGradient9060"
       id="radialGradient9079"
       gradientUnits="userSpaceOnUse"
       gradientTransform="matrix(1,0,0,-1,0,32)"
       cx="12"
       cy="12"
       fx="12"
       fy="12"
       r="8" />
  </defs>
  <sodipodi:namedview
     id="namedview7882"
     pagecolor="#505050"
     bordercolor="#ffffff"
     borderopacity="1"
     inkscape:showpageshadow="0"
     inkscape:pageopacity="0"
     inkscape:pagecheckerboard="1"
     inkscape:deskcolor="#505050"
     showgrid="true"
     inkscape:zoom="39.4375"
     inkscape:cx="15.987322"
     inkscape:cy="16"
     inkscape:window-width="2560"
     inkscape:window-height="1440"
     inkscape:window-x="0"
     inkscape:window-y="0"
     inkscape:window-maximized="0"
     inkscape:current-layer="svg7880">
    <inkscape:grid
       type="xygrid"
       id="grid7886"
       empspacing="4" />
  </sodipodi:namedview>
  <rect
     style="fill:url(#linearGradient8282);stroke-width:0.1;stop-color:#000000;fill-opacity:1"
     id="rect7888"
     width="4"
     height="8"
     x="24"
     y="12" />
  <rect
     style="fill:url(#linearGradient8286);fill-opacity:1;stroke-width:0.1;stop-color:#000000"
     id="rect8284"
     width="4"
     height="8"
     x="-8"
     y="12"
     transform="scale(-1,1)" />
  <rect
     style="fill:url(#linearGradient8290);fill-opacity:1;stroke-width:0.1;stop-color:#000000"
     id="rect8288"
     width="4"
     height="8"
     x="-8"
     y="-20"
     transform="matrix(0,-1,-1,0,0,0)" />
  <rect
     style="fill:url(#linearGradient8294);fill-opacity:1;stroke-width:0.1;stop-color:#000000"
     id="rect8292"
     width="4"
     height="8"
     x="24"
     y="-20"
     transform="rotate(90)" />
  <path
     id="path9054"
     style="fill:url(#radialGradient9062);stroke-width:0.1;stop-color:#000000;fill-opacity:1"
     d="M 12 4 A 8 8 0 0 0 4 12 L 12 12 L 12 4 z " />
  <path
     id="path9069"
     style="fill:url(#radialGradient9071);fill-opacity:1;stroke-width:0.1;stop-color:#000000"
     d="m 20,4 a 8,8 0 0 1 8,8 h -8 z" />
  <path
     id="path9073"
     style="fill:url(#radialGradient9075);fill-opacity:1;stroke-width:0.1;stop-color:#000000"
     d="m 20,28 a 8,8 0 0 0 8,-8 h -8 z" />
  <path
     id="path9077"
     style="fill:url(#radialGradient9079);fill-opacity:1;stroke-width:0.1;stop-color:#000000"
     d="M 12,28 A 8,8 0 0 1 4,20 h 8 z" />
  <path
     id="rect9108"
     style="fill:#000000;stroke-width:0.1;stop-color:#000000"
     d="M 12 8 L 12 12 L 8 12 L 8 20 L 12 20 L 12 24 L 20 24 L 20 20 L 24 20 L 24 12 L 20 12 L 20 8 L 12 8 z " />
</svg>
